icons/virus.svg

<svg width="24" height="24" viewBox="0 0 24 24" fill="none" xmlns="http://www.w3.org/2000/svg">
<path d="M17 12C17 13.38 16.44 14.63 15.536 15.536C15.0721 16.001 14.521 16.3697 13.9141 16.6209C13.3073 16.8722 12.6568 17.001 12 17C10.62 17 9.37001 16.44 8.46401 15.536C7.99903 15.0721 7.63033 14.521 7.37908 13.9141C7.12784 13.3073 6.99901 12.6568 7.00001 12C7.00001 10.62 7.56001 9.37001 8.46401 8.46401C8.92787 7.99903 9.47905 7.63033 10.0859 7.37908C10.6927 7.12784 11.3432 6.99901 12 7.00001C13.38 7.00001 14.63 7.56001 15.536 8.46401C16.001 8.92787 16.3697 9.47905 16.6209 10.0859C16.8722 10.6927 17.001 11.3432 17 12V12Z" stroke="white" stroke-width="2" stroke-linecap="round" stroke-linejoin="round"/>
<path d="M4.5 6.5L6.5 4.5" stroke="white" stroke-width="2" stroke-linecap="round" stroke-linejoin="round"/>
<path d="M11 3H13" stroke="white" stroke-width="2" stroke-linecap="round" stroke-linejoin="round"/>
<path d="M17.5 4.5L19.5 6.5" stroke="white" stroke-width="2" stroke-linecap="round" stroke-linejoin="round"/>
<path d="M21 11V13" stroke="white" stroke-width="2" stroke-linecap="round" stroke-linejoin="round"/>
<path d="M19.5 17.5L17.5 19.5" stroke="white" stroke-width="2" stroke-linecap="round" stroke-linejoin="round"/>
<path d="M13 21H11" stroke="white" stroke-width="2" stroke-linecap="round" stroke-linejoin="round"/>
<path d="M6.5 19.5L4.5 17.5" stroke="white" stroke-width="2" stroke-linecap="round" stroke-linejoin="round"/>
<path d="M3 13V11" stroke="white" stroke-width="2" stroke-linecap="round" stroke-linejoin="round"/>
<path d="M5.5 18.4999L8.464 15.5359" stroke="white" stroke-width="2" stroke-linecap="round" stroke-linejoin="round"/>
<path d="M12 17V21" stroke="white" stroke-width="2" stroke-linecap="round" stroke-linejoin="round"/>
<path d="M18.5 18.4999L15.536 15.5359" stroke="white" stroke-width="2" stroke-linecap="round" stroke-linejoin="round"/>
<path d="M17 12H21" stroke="white" stroke-width="2" stroke-linecap="round" stroke-linejoin="round"/>
<path d="M18.5 5.5L15.536 8.464" stroke="white" stroke-width="2" stroke-linecap="round" stroke-linejoin="round"/>
<path d="M12 7V3" stroke="white" stroke-width="2" stroke-linecap="round" stroke-linejoin="round"/>
<path d="M5.5 5.5L8.464 8.464" stroke="white" stroke-width="2" stroke-linecap="round" stroke-linejoin="round"/>
<path d="M7 12H3" stroke="white" stroke-width="2" stroke-linecap="round" stroke-linejoin="round"/>
</svg>

<svg
  width="24"
  height="24"
  viewBox="0 0 24 24"
  xmlns="http://www.w3.org/2000/svg"
  fill="none"
  stroke="currentColor"
  stroke-width="2"
  stroke-linecap="round"
  stroke-linejoin="round"
>
  <path d="M17 12c0 1.38-.56 2.63-1.464 3.536A4.983 4.983 0 0 1 12 17c-1.38 0-2.63-.56-3.536-1.464A4.984 4.984 0 0 1 7 12c0-1.38.56-2.63 1.464-3.536A4.984 4.984 0 0 1 12 7c1.38 0 2.63.56 3.536 1.464A4.983 4.983 0 0 1 17 12z" />
  <path d="M4.5 6.5l2-2" />
  <path d="M11 3h2" />
  <path d="M17.5 4.5l2 2" />
  <path d="M21 11v2" />
  <path d="M19.5 17.5l-2 2" />
  <path d="M13 21h-2" />
  <path d="M6.5 19.5l-2-2" />
  <path d="M3 13v-2" />
  <path d="M5.5 18.5l2.964-2.964" />
  <path d="M12 17v4" />
  <path d="M18.5 18.5l-2.964-2.964" />
  <path d="M17 12h4" />
  <path d="M18.5 5.5l-2.964 2.964" />
  <path d="M12 7V3" />
  <path d="M5.5 5.5l2.964 2.964" />
  <path d="M7 12H3" />
</svg>
